dist/svg/static/poi-calendar-large.svg

<svg xmlns="http://www.w3.org/2000/svg" width="48" height="48" viewBox="0 0 48 48"><g fill="none" stroke="currentColor"><path d="M16 10.5h13"/><path stroke-linejoin="round" d="M16.5 12v10.01c0 .328.233.596.6.596h7.886l3.535-3.165V12"/><path d="M28.5 19.5h-4v3"/><path d="M19.5 22.614v1.29c0 .328.233.596.6.596h9.742c.367 0 .658-.268.658-.595V14"/><path d="M37.5 17.5c0-7.7-6.3-14-14-14s-14 6.3-14 14 14 27 14 27 14-19.3 14-27z"/></g></svg>

<?xml version="1.0" encoding="UTF-8" standalone="no"?>
<svg width="48px" height="48px" viewBox="0 0 48 48" version="1.1" xmlns="http://www.w3.org/2000/svg" xmlns:xlink="http://www.w3.org/1999/xlink">
    <!-- Generator: sketchtool 46.2 (44496) - http://www.bohemiancoding.com/sketch -->
    <title>poi-calendar-large</title>
    <desc>Created with sketchtool.</desc>
    <defs></defs>
    <g id="icons-published" stroke="none" stroke-width="1" fill="none" fill-rule="evenodd">
        <g id="briefing" transform="translate(-576.000000, -1306.000000)"></g>
        <g id="poi-calendar-large" stroke="#000000">
            <path d="M16,10.5 L29,10.5" id="Shape"></path>
            <path d="M16.5,12 L16.5,22 C16.5,22.3 16.7,22.6 17.1,22.6 L25,22.6 L28.5,19.4 L28.5,12" id="Shape" stroke-linejoin="round"></path>
            <polyline id="Shape" points="28.5 19.5 24.5 19.5 24.5 22.5"></polyline>
            <path d="M19.5,22.6 L19.5,23.9 C19.5,24.2 19.7,24.5 20.1,24.5 L29.8,24.5 C30.2,24.5 30.5,24.2 30.5,23.9 L30.5,14" id="Shape"></path>
            <path d="M37.5,17.5 C37.5,9.8 31.2,3.5 23.5,3.5 C15.8,3.5 9.5,9.8 9.5,17.5 C9.5,25.2 23.5,44.5 23.5,44.5 C23.5,44.5 37.5,25.2 37.5,17.5 Z" id="Shape"></path>
        </g>
    </g>
</svg>
